resources/haticons/SVG/laptop.svg

<!-- Generated by IcoMoon.io -->
<svg version="1.1" xmlns="http://www.w3.org/2000/svg" width="24" height="24" viewBox="0 0 24 24">
<title>laptop</title>
<path d="M21 16.5v-12c0-0.825-0.675-1.5-1.5-1.5h-15c-0.825 0-1.5 0.675-1.5 1.5v12h-3v4.5h24v-4.5h-3zM15 19.5h-6v-1.5h6v1.5zM19.5 16.5h-15v-11.997c0.001-0.001 0.002-0.002 0.003-0.003h14.995c0.001 0.001 0.002 0.002 0.003 0.003v11.997z"></path>
</svg>

<svg xmlns="http://www.w3.org/2000/svg" width="24" height="24"><path d="M21 16.5v-12c0-.825-.675-1.5-1.5-1.5h-15C3.675 3 3 3.675 3 4.5v12H0V21h24v-4.5h-3zm-6 3H9V18h6v1.5zm4.5-3h-15V4.503l.003-.003h14.995l.003.003V16.5z"/></svg>
